src/assets/map.svg

<svg width="65" height="59" viewBox="0 0 65 59" fill="none" xmlns="http://www.w3.org/2000/svg">
<path d="M12.5872 58.0207C12.2081 58.4415 11.5556 58.4724 11.1475 58.0797C7.18457 54.2672 3.80999 50.4044 1.53879 45.6902C-0.503784 41.4502 -0.440742 37.3013 2.31043 33.3801C3.91722 31.1067 6.28588 29.4893 8.98342 28.8237C11.681 28.158 14.5272 28.4885 17.0018 29.7548C22.1385 32.3757 24.7132 38.3562 22.6454 43.7625C21.609 46.4694 20.0354 49.0423 18.3257 51.3975C16.6319 53.7252 14.5894 55.7985 12.5872 58.0207ZM11.7794 36.4108C11.0449 36.4094 10.3264 36.6259 9.71425 37.033C9.10209 37.4402 8.62358 38.0198 8.3389 38.6991C8.05421 39.3783 7.97606 40.1268 8.11428 40.8505C8.2525 41.5742 8.60091 42.2407 9.1157 42.7663C9.6305 43.2919 10.2887 43.653 11.0075 43.8043C11.7263 43.9556 12.4737 43.8903 13.1557 43.6166C13.8376 43.3429 14.4237 42.8731 14.8401 42.2662C15.2566 41.6592 15.4849 40.9423 15.4964 40.2056C15.5014 39.7109 15.4089 39.2202 15.2244 38.7615C15.0399 38.3028 14.7668 37.8852 14.421 37.5326C14.0752 37.18 13.6634 36.8994 13.2092 36.7069C12.755 36.5144 12.2674 36.4138 11.7743 36.4108H11.7794Z" fill="#C3B269"/>
<path d="M53.0533 30.8342C48.5143 26.4677 44.2753 22.0279 42.1646 16.0676C40.4726 11.2963 41.688 7.08919 45.3394 3.65368C48.6757 0.514155 53.7115 -0.196716 57.9025 1.73607C62.1465 3.69416 64.9633 8.00501 64.6052 12.6624C64.4049 14.6655 63.8417 16.6151 62.9434 18.4153C60.6386 23.227 57.0527 27.0774 53.0533 30.8342ZM53.0205 16.0574C53.7552 16.0599 54.4742 15.8442 55.087 15.4377C55.6999 15.0311 56.1792 14.4518 56.4646 13.7727C56.7501 13.0935 56.8289 12.3449 56.6913 11.6209C56.5536 10.8968 56.2056 10.2298 55.691 9.70378C55.1764 9.17771 54.5183 8.81607 53.7993 8.66436C53.0803 8.51265 52.3327 8.57763 51.6505 8.85116C50.9683 9.12469 50.3819 9.59455 49.9652 10.2016C49.5485 10.8086 49.32 11.5257 49.3086 12.2627C49.3033 12.7566 49.3951 13.2467 49.5789 13.7048C49.7627 14.163 50.0348 14.5803 50.3796 14.9329C50.7245 15.2854 51.1352 15.5661 51.5884 15.7591C52.0416 15.9521 52.5282 16.0535 53.0205 16.0574V16.0574Z" fill="#C3B269"/>
<path d="M20.3647 57.9607C19.7643 57.9555 19.293 57.4402 19.293 56.8398V55.7345C19.293 54.8654 19.9975 54.1609 20.8665 54.1609V54.1609C29.1847 54.1609 37.5021 54.1609 45.8187 54.1609C48.8674 54.1609 51.0663 52.0915 51.1394 49.2505C51.1704 48.5852 51.067 47.9205 50.8354 47.2963C50.6039 46.6721 50.2491 46.1013 49.7921 45.6181C49.3352 45.1349 48.7857 44.7493 48.1766 44.4845C47.5674 44.2197 46.9112 44.0811 46.2473 44.077C42.6363 44.029 39.0202 44.1124 35.4041 44.0416C31.1172 43.9581 27.4506 40.7528 26.848 36.6874C26.1923 32.2627 28.5778 28.2327 32.7084 26.821C33.2121 26.6093 33.7454 26.477 34.2895 26.4289C37.3632 26.4015 40.4369 26.4075 43.5544 26.4102C44.5877 26.4112 45.4253 27.2488 45.4253 28.282V28.5969C45.4253 29.4562 44.7287 30.1528 43.8694 30.1528V30.1528C41.1384 30.1528 38.4074 30.1351 35.6764 30.1528C32.7512 30.1781 30.5851 32.2703 30.5271 35.086C30.4691 37.9017 32.6428 40.1937 35.6058 40.2443C39.0504 40.3025 42.4951 40.2443 45.9447 40.2646C51.0209 40.2848 54.8993 44.077 54.9371 49.0329C54.9749 53.9889 51.0487 57.9481 45.9473 57.9607C37.4189 57.986 28.8931 57.9607 20.3647 57.9607V57.9607Z" fill="#C3B269"/>
</svg>

<svg width="65" height="59" fill="none" xmlns="http://www.w3.org/2000/svg"><path d="M12.587 58.02a1.004 1.004 0 0 1-1.44.06c-3.962-3.813-7.337-7.676-9.608-12.39-2.043-4.24-1.98-8.389.771-12.31a11.566 11.566 0 0 1 6.673-4.556 11.533 11.533 0 0 1 8.019.93c5.137 2.622 7.711 8.602 5.643 14.009-1.036 2.706-2.61 5.28-4.32 7.635-1.693 2.327-3.736 4.4-5.738 6.623Zm-.808-21.61a3.716 3.716 0 0 0-2.065.623 3.747 3.747 0 0 0-.599 5.733 3.721 3.721 0 0 0 4.04.85 3.726 3.726 0 0 0 1.685-1.35 3.746 3.746 0 0 0 .656-2.06 3.768 3.768 0 0 0-1.075-2.673 3.743 3.743 0 0 0-2.647-1.122h.005Zm41.274-5.576c-4.539-4.366-8.778-8.806-10.888-14.766-1.692-4.772-.477-8.979 3.174-12.414 3.337-3.14 8.373-3.85 12.564-1.918 4.244 1.958 7.06 6.269 6.702 10.926a16.58 16.58 0 0 1-1.662 5.753c-2.304 4.812-5.89 8.662-9.89 12.42Zm-.032-14.777a3.715 3.715 0 0 0 2.066-.62 3.748 3.748 0 0 0 .604-5.734 3.721 3.721 0 0 0-4.04-.852 3.727 3.727 0 0 0-1.686 1.35 3.744 3.744 0 0 0-.656 2.062 3.765 3.765 0 0 0 1.07 2.67 3.743 3.743 0 0 0 2.642 1.124ZM20.365 57.96c-.6-.005-1.072-.52-1.072-1.12v-1.106c0-.869.704-1.573 1.573-1.573H45.82c3.048 0 5.247-2.07 5.32-4.91a4.955 4.955 0 0 0-1.347-3.633 4.927 4.927 0 0 0-3.545-1.541c-3.61-.048-7.227.035-10.843-.035-4.287-.084-7.953-3.29-8.556-7.355-.656-4.424 1.73-8.454 5.86-9.866a5.28 5.28 0 0 1 1.581-.392c3.074-.027 6.148-.021 9.265-.019a1.872 1.872 0 0 1 1.871 1.872v.315c0 .86-.696 1.556-1.556 1.556-2.73 0-5.462-.018-8.193 0-2.925.025-5.09 2.117-5.149 4.933-.058 2.816 2.116 5.108 5.079 5.158 3.444.059 6.89 0 10.339.02 5.076.02 8.954 3.813 8.992 8.769.038 4.956-3.888 8.915-8.99 8.928-8.528.025-17.054 0-25.582 0Z" fill="#C3B269"/></svg>
